X:1
T:Scalda, scalda signor
T:Scalda, scalda signor
T:Jacomo Peetrino
C:Jacomo Peetrino
%%score [ 1 2 3 ] { ( 4 7 ) | ( 5 6 ) }
L:1/8
Q:1/4=120
M:2/2
K:C
V:1 treble nm="Soprano 1" snm="S 1"
V:2 treble nm="Soprano 2" snm="S 2"
V:3 treble-8 nm="Tenor" snm="T"
V:4 treble nm="MusicXML Part"
V:7 treble 
V:5 bass 
V:6 bass 
V:1
 z4 e4- | e4 d2 c2 | B2 A2 B4 | ^c4 z2 d2- | dd d2 e3 e | e2 ^f2 g2 e2 | f8 | e8 | z2 e2 d3 B | %9
w: Scal-|||da, scal-|* da si- gnor que-|sto ge- la- to|co-|re,|et rom- p'il|
 c2 A2 z2 e2- | e2 f2 e4 | ^c2 e3 dcB | A2 d4 ^c2 |[M:2/4] d4 :: z2 A2 |[M:2/2] ^c2 d2 e2 c2 | %16
w: mar- mo che|_ lo cin-|ge'in- du- * * *||ra.|Tal,|ch'oi ri- co- va|
 d3 d d2 f2 | e2 e2 z2 e2- | e2 B3 B c2 | A2 A3 AAA | B4 B4 | z4 e4 | f3 e d2 ^c2 | d2 e2 f2 f2 | %24
w: la tua'im- a- gin|pu- ra, tal-|_ ch'oi ri- co-|va la tua'im- a- gin|pu- ra|et|n'ar- da tut- to'in|ca- ri ta'et A-|
 e2 g3 f ed | cd e3 d dc/B/ | ^c2 d4 c2 |[M:2/4] d4 :| %28
w: mo- * * * *|||re.|
V:2
 z4 c4- | c4 B2 A2 | ^G2 A4 G2 | A4 z2 B2- | BB B2 c2 G2 | A3 A B2 ^c2 | d8- | d4 ^c4 | %8
w: Scal-|||da, scal-|* da si- gnor que-|sto ge- la- to|co-|* re,|
 z2 B2 A3 F | G2 E2 z2 G2 | A2 c3 c B2 | E2 A4 G2 | F4 E4 |[M:2/4] D4 :: z2 ^F2 | %15
w: et rom- p'il|mar- mo che|lo cin- ge'in- du-|||ra.|Tal,|
[M:2/2] A2 G2 G2 A2 | B3 B A2 d2 | ^c2 c2 z2 A2 | E2 ^F2 G3 A | F3 F F2 A2 | ^G4 G4 | z4 B4 | %22
w: ch'oi ri- co- va|la tua'im- a- gin|pu- ra, tal|ch'oi ri- co- va|la tua'im- a- gin|pu- ra|et|
 c3 B A2 G2 | A2 A2 A2 d2 | c2 BA G2 A2- | AF G3 F FE/D/ | E2 D2 E4 |[M:2/4] D4 :| %28
w: n'ar- da tut- to'in|ca- ri- ta'et A-|mo- * * * *|||re.|
V:3
 A6 B2 | c4 d4 | e8 | A4 z2 G2- | GG G2 c3 c | c2 d2 G2 A2 | D8 | A6 A2 | G3 E F2 Dd | c3 A B2 c2 | %10
w: Scal- *|||da, scal-|* da si- gnor que-|sto ge- la- to|co-|re, et|rom- p'il mar- mo et|rom- p'il mar- mo|
 A6 ^G2 | A4 E4 | F3 G A4 |[M:2/4] D4 :: z2 d2 |[M:2/2] A2 B2 c2 A2 | G3 G F2 D2 | A2 A2 z2 A2 | %18
w: che lo|cin- ge'in-|du- * *|ra.|Tal,|ch'oi ri- co- va|la tua'im- a- gin|pu- ra, tal|
"^-natural" ^c2 d2 e2 c2 | d3 d d2 f2 | e4 e4 | z4 E4 | A3 G F2 E2 | D2 ^C2 EFGA | A2 G2 c3 B | %25
w: ch'oi ri- co- va|la tua'im- a- gin|pu- ra|et|n'ar- da tut- to'in|ca- ri- ta _ _ _|et A mo- *|
 A2 G2 _B4 | A8 |[M:2/4] D4 :| %28
w: ||re.|
V:4
 z4 [ce]4- | [ce]4 [Bd]2 [Ac]2 | B2 z2 B4 | ^c4 z2 [Bd-]2 | [Bd][Bd] [Bd]2 [ce]3 [ce] | %5
"^#""^#" [ce]2 [Af]2 [Bg]2 [ce]2 | [df]8 | e2 d2 ^c4 | z2 [Be]2 [Ad]3 B | c2 A2 z2 [ce]2- | %10
 [ce]2 f2 e4 | z2 e3 d=cB | A2 d4 ^c2 |[M:2/4] d4 :: z2 A2 |[M:2/2] ^c2 d2 e2 c2 | d3 d d2 f2 | %17
 e2 e2 z2 e2- | e2 B3 B c2 | A2 A3 A AA | B4 B4 | z4 e4 | f3 e d2 ^c2 | d2 e2 f2 f2 | e2 g3 f ed | %25
"^#" cd e3 d dc/B/ | ^c2 d4 c2 |[M:2/4] d4 :| %28
V:5
 A,,6 B,,2 | C,4 D,4 | ^G,2 A,4 G,2 | [A,,E,A,]4 z2 G,2 | G,4 G,2 G,2 | A,3 A, G,2 E,2 | D,8 | %7
 E,8 | z4 z3 [D,F,] | G,2 E,2 G,2 G,2 | A,4 E,4 | [A,,E,]4 E,4 | z4 [A,,E,A,]4 |[M:2/4] [D,,D,]4 :: %14
 z2 [D,^F,]2 |[M:2/2] A,2 G,2 G,2 A,2 | D,2 D,2 D,2 D,2 | E,2 E,2 z2 A,2 | E,2 ^F,2 G,3 A, | %19
 F,3 F, F,2 F,2 | ^G,4 G,4 | z4 E,,4 | A,,3 G,, F,,2 E,,2 | D,,2 C,,2 D,,E,,F,,G,, | %24
 A,,2 G,,2 [C,G,]2 A,2- | A,F, G,3 F, F,E,/D,/ | [A,,E,A,]8 |[M:2/4] [D,,D,]4 :| %28
V:6
 x8 | x8 | x8 | A,,4 z2 G,,2- | G,,G,, G,,2 C,3 C, | C,2 D,2 G,,2 A,,2 | D,,3 E,, F,,E,,F,,G,, | %7
 A,,6 A,,2 | G,,3 E,, F,,2 D,,D, | C,3 A,, B,,2 C,2 | A,,6 ^G,,2 | A,,4 E,,4 | F,,3 G,, z4 | %13
[M:2/4] x4 :: x4 |[M:2/2] A,,2 B,,2 C,2 A,,2 | G,,3 G,, F,,2 D,,2 | A,,2 A,,2 z2 A,,2 | %18
 ^C,2 D,2 E,2 C,2 | D,3 D, D,2 F,2 | E,4 E,4 | x8 | x8 | x8 | x8 | A,,2 G,,2 _B,,4 | x8 | %27
[M:2/4] x4 :| %28
V:7
 x8 | x8 | x8 | x8 | x8 | x8 | x8 | x8 | x8 | x8 | c2 c3 c B2 | ^c2 A2 A2 G2 | F2 F2 z4 | %13
[M:2/4] ^F4 :: x4 |[M:2/2] x8 | B3 B A2 d2 | ^c2 c2 z4 | x8 | x8 | x8 | z4 B4 | c3 B A2 G2 | %23
 [FA]2 A2 A2 d2 | c3 c/B/ z4 | x8 | x8 |[M:2/4] [^FA]4 :| %28

